!!!COM: Bach, Johann Sebastian
!!!CDT: 1685/3//-1750/7/28/
!!!OTL@@DE: O Mensch, bewein' dein' Suende gross
!!!AGN: 4-Part Chorale
!!!SCT: Erk 201
!!!SCT: BWV 402
!!!YEC: Copyright 1994, David Huron
!!!YEC: Changes/Additions 2001 by Craig Stuart Sapp
!!!YEN: United States of America
!!!SMA: 371 Bach Chorales, edited by Ludwig Erk, C.F. Peters
!!!PDT: 1850, 1865
!!!ONB: Harmony and Root analysis done manually
**kern	**kern	**kern	**kern	**root	**harm	**kern
!bass	!tenor	!alto	!soprno	!	!	!
*Iorgan	*Iorgan	*Iorgan	*Iorgan	*Iorgan	*	*Iorgan
*M4/4	*M4/4	*M4/4	*M4/4	*M4/4	*M4/4	*M4/4
*met(C)	*met(C)	*met(C)	*met(C)	*met(C)	*met(C)	*met(C)
*MM60	*MM60	*MM60	*MM60	*MM60	*MM60	*MM60
*k[b-e-a-]	*k[b-e-a-]	*k[b-e-a-]	*k[b-e-a-]	*k[b-e-a-]	*k[b-e-a-]	*k[b-e-a-]
*E-:	*E-:	*E-:	*E-:	*E-:	*E-:	*E-:
*>[A,A,B]	*>[A,A,B]	*>[A,A,B]	*>[A,A,B]	*>[A,A,B]	*>[A,A,B]	*>[A,A,B]
*>A	*>A	*>A	*>A	*>A	*>A	*>A
4E-	4G	4B-	4e-	4EE-	I	4E- 4g 4b-
=1	=1	=1	=1	=1	=1	=1
8A-	4A-	[4c	4e-	4AA-	IV	4A- 4cc 4ee-
8G	.	.	.	.	.	.
4F	4A-	8c]	4f	4FF	ii	4F 4a- 4cc
.	.	16Bn	.	.	.	.
.	.	16c	.	.	.	.
4BBn	4G	[4d	8g	4GG	Vb/vi	4g 4B 4dd
.	.	.	8f	.	.	.
[4C	4G	8d]	4e-	4CC	vi	4C 4e- 4g
.	.	16c	.	.	.	.
.	.	16d	.	.	.	.
=2	=2	=2	=2	=2	=2	=2
4C]	8c	[4e-	4g	4CC	vi	4C 4e- 4g
.	8B-	.	.	.	.	.
4FF#	4An	8e-]	4an	4DD	Vb/iii	4d 4F# 4a
.	.	8d	.	.	.	.
4GG;	4G;	4d;	4b-;	4GG;	iii;	4G; 4b-; 4dd;
4G	4d	[4g	4b-	4GG	iii	4G 4b- 4dd
=3	=3	=3	=3	=3	=3	=3
8C	8e-	8g]	4a-	8AA-	IVb	8a- 8C 8ee-
8D	8B-	[8f	.	8BB-	V7b	8b- 8D 8ff 8aa-
4E-	4B-	8f]	4g	4EE-	I	4E- 4g 4b-
.	.	[8e-	.	.	.	.
8AAn	8c	8e-]	4f	8FF	V7b/V	8f 8A 8cc 8ee-
8BBn	8G	8d	.	8GG	V7b/vi	8g 8B 8dd 8ff
[4C	4G	8c	8e-	4CC	vi	4C 4e- 4g
.	.	8d	8f	.	.	.
=4	=4	=4	=4	=4	=4	=4
4C]	8c	8e-	4g	4CC	vi	4C 4e- 4g
.	8B-	8d	.	.	.	.
4FF	4c	4e-	4an	4FF	V7/V	4F 4a 4cc 4ee-
4BB-;	4B-;	4d;	4b-;	4BB-;	V;	4B-; 4dd; 4ff;
8F	[4A-	[4f	4cc	4FF	ii	4F 4a- 4cc
8E-	.	.	.	.	.	.
=5	=5	=5	=5	=5	=5	=5
8D	8A-]	8f]	4b-	8BB-	V7b	8b- 8D 8ff 8aa-
8BB-	4G	16e-	.	8EE-	Ic	8e- 8g 8B-
.	.	16d	.	.	.	.
8C	.	8e-	4a-	8AA-	IVb	8a- 8C 8ee-
8D	8F	[8B-	.	8BB-	V7b	8b- 8D 8ff 8aa-
8E-	[4E-	8B-]	4g	4EE-	I	4E- 4g 4b-
8D	.	16e-	.	.	.	.
.	.	16d	.	.	.	.
8C	8E-]	[4e-	4a-	4AA-	IVb	4a- 4C 4ee-
8BB-	8B-	.	.	.	.	.
=6	=6	=6	=6	=6	=6	=6
8AA-	8c	8e-]	2f	8FF	ii7b	8f 8A- 8cc 8ee-
8FF	8A-	16d	.	8FF	ii	8F 8a- 8cc
.	.	16c	.	.	.	.
4BB-	8F	4d	.	4BB-	V	4B- 4dd 4ff
.	8B-	.	.	.	.	.
4EE-;	4G;	4B-;	4e-;	4EE-;	I;	4E-; 4g; 4b-;
=:|!	=:|!	=:|!	=:|!	=:|!	=:|!	=:|!
*>B	*>B	*>B	*>B	*>B	*>B	*>B
8EE-	8G	8b-	4ee-	8EE-	I	8E- 8g 8b-
8FF	8A-	8a-	.	8FF	ii7	8F 8a- 8cc 8ee-
=7	=7	=7	=7	=7	=7	=7
4GG	4B-	4g	4ee-	4EE-	Ib	4e- 4G 4b-
4AAn	[4c	4f	4ee-	4FF	V7b/V	4f 4A 4cc 4ee-
8BB-	8c]	4f	4dd	4BB-	V	4B- 4dd 4ff
8C	16B-	.	.	.	.	.
.	16A-	.	.	.	.	.
4D-	4G	4e-	4b-	4EE-	V7d/IV	4e- 4g 4b- 4D-
=8	=8	=8	=8	=8	=8	=8
8C	4A-	8e-	4cc	4AA-	IVb	4a- 4C 4ee-
8BB-	.	8d-	.	.	.	.
4AA-	4A-	4e-	4cc	4AA-	IV	4A- 4cc 4ee-
4E-;	4B-;	4e-;	4g;	4EE-;	I;	4E-; 4g; 4b-;
8C	[4c	4g	4ee-	4CC	vi	4C 4e- 4g
8BB-	.	.	.	.	.	.
=9	=9	=9	=9	=9	=9	=9
8AAn	8c]	4f	4ee-	4FF	V7b/V	4f 4A 4cc 4ee-
8GG	8B-	.	.	.	.	.
4FF	4An	4f	4ee-	4FF	V7/V	4F 4a 4cc 4ee-
8BB-	8B-	4f	4dd	4BB-	V	4B- 4dd 4ff
8C	8A	.	.	.	.	.
4D	[4B-	4f	4b-	4BB-	Vb	4b- 4D 4ff
=10	=10	=10	=10	=10	=10	=10
4E-	8B-]	4g	4cc	4CC	V7b/V/V	4c 4E 4g 4b-
.	16An	.	.	.	.	.
.	16G	.	.	.	.	.
4F	4A	8f	4cc	4FF	V/V	4F 4a 4cc
.	.	8e-	.	.	.	.
4BB-;	4B-;	4d;	4b-;	4BB-;	V;	4B-; 4dd; 4ff;
[4E-	4B-	8e-	8g	4EE-	I	4E- 4g 4b-
.	.	8f	8a-	.	.	.
=11	=11	=11	=11	=11	=11	=11
8E-]	4e-	4g	4b-	4EE-	I	4E- 4g 4b-
8D-	.	.	.	.	.	.
8C	4e-	4a-	4cc	4AA-	IVb	4a- 4C 4ee-
8Dn	.	.	.	.	.	.
4E-	8e-	4g	4b-	4EE-	I	4E- 4g 4b-
.	[8d-	.	.	.	.	.
4En	8d-]	[4g	4g	4CC	Vb/V/V	4c 4E 4g
.	8c	.	.	.	.	.
=12	=12	=12	=12	=12	=12	=12
4F	4c	8g]	2a-	4FF	V/V	4F 4a 4cc
.	.	16f	.	.	.	.
.	.	16e-	.	.	.	.
4BBn	8d	8f	.	4BB	viioD7/vi	4B 4dd 4ff 4aa-
.	8f	8d	.	.	.	.
4C;	4c;	4e-;	4g;	4CC;	vi;	4C; 4e-; 4g;
[4D-	4A-	4f	4f	4DD-	IV/IV	4D- 4f 4a-
=13	=13	=13	=13	=13	=13	=13
4D-]	4B-	4e-	4g	4EE-	V7d/IV	4e- 4g 4b- 4D-
4C	4c	4e-	4a-	4AA-	IVb	4a- 4C 4ee-
8BB-	4dn	4f	4b-	4BB-	V	4B- 4dd 4ff
8AA-	.	.	.	.	.	.
4GG	8Dn	4g	4b-	4GG	iii	4G 4b- 4dd
.	8En	.	.	.	.	.
=14	=14	=14	=14	=14	=14	=14
4FF	4F	8c	4a-	4FF	ii	4F 4a- 4cc
.	.	8d	.	.	.	.
8GG	4B-	[4e-	4g	4EE-	Ib	4e- 4G 4b-
8AA-	.	.	.	.	.	.
4BB-;	4B-;	8e-]	4f;	4BB-;	V;	4B-; 4dd; 4ff;
.	.	8d;	.	.	.	.
4B-	4d	4f	4b-	4BB-	V	4B- 4dd 4ff
=15	=15	=15	=15	=15	=15	=15
4An	4c	4f	4cc	4FF	Vb/V	4f 4A 4cc
4A-	[4B-	4f	4dd	4BB-	V7d	4b- 4dd 4ff 4A-
4.G	8B-]	8g	4ee-	4EE-	Ib	4e- 4G 4b-
.	8c	8an	.	.	.	.
.	4d	[4b-	4dd	4GG	iii	4G 4b- 4dd
8F	.	.	.	.	.	.
=16	=16	=16	=16	=16	=16	=16
4En	4G	4b-]	4cc	4CC	V7b/ii	4c 4E 4g 4b-
4F#	4d	4an	4cc	4DD	V7b/iii	4d 4F# 4a 4cc
4G;	4d;	4g;	4b-;	4GG;	iii;	4G; 4b-; 4dd;
4A-	4c	4e-	4e-	4AA-	IV	4A- 4cc 4ee-
=17	=17	=17	=17	=17	=17	=17
8A-	4B-	4d	4f	4BB-	V7d	4b- 4dd 4ff 4A-
8G	.	.	.	.	.	.
8F	[4B-	4e-	4g	4EE-	I	4E- 4g 4b-
8E-	.	.	.	.	.	.
8D	8B-]	8f	4a-	8BB-	V7b	8b- 8D 8ff 8aa-
8BB-	8F	8d	.	8BB-	V7	8B- 8dd 8ff 8aa-
8E-	8G	8B-	4g	8EE-	I	8E- 8g 8b-
8GG	8B-	[8e-	.	8EE-	Ib	8e- 8G 8b-
=18	=18	=18	=18	=18	=18	=18
4AA-	8c	8e-]	2f	8FF	ii7b	8f 8A- 8cc 8ee-
.	8A-	16d	.	8DD	viioc	8d 8f 8A-
.	.	16c	.	.	.	.
4BB-	8F	4d	.	4BB-	V	4B- 4dd 4ff
.	16B-	.	.	.	.	.
.	16A-	.	.	.	.	.
4EE-;	4G;	4B-;	4e-;	4EE-;	I;	4E-; 4g; 4b-;
====	====	====	====	====	====	====
*-	*-	*-	*-	*-	*-	*-
!!!ONB: Change m.10, b.1 to second inversion from fourth inversion
